X:1
T:Tempo di Menuetto
T:Tempo di Menuetto
T:Frantisek Benda (1709-1786) 
C:Frantisek Benda
%%score ( 1 2 ) { ( 3 5 ) | ( 4 6 ) }
L:1/8
Q:1/4=132
M:3/4
K:C
V:1 treble nm="Violon" snm="Vln."
V:2 treble 
V:3 treble nm="Piano" snm="Pia."
V:5 treble 
V:4 bass 
V:6 bass 
V:1
"^Un poco allegro"!f! .A(cBAce) | a2 a4 | .B(dcBd^g) | b2 b4 | .c(edcea) | (c'b) (d'c') (ba) | %6
 ^g2 (a3 b/c'/) | b3!>(! (dcB!>)! |!p! .A)(cBA)ce | a2 a4 | .B(dcB)d^g | b2 b4 | %12
 .c"_cresc."(edc)ea | (c'bd')^gae |!f! (fd) c2 (TB2{AB)} | A4 z2 |!p! c4 (eG) |{GB} A2 G2 z2 | %18
 c2 (e/d/c/B/ A/G/F/E/) |{EG} F2 E2 z2 |!<(! c4!<)!!f! (_b2- | b2 a2) !tenuto!g2 | f!>(!e d2 c2 | %23
 BA G2 z2!>)! |!p!"_espr."!<(! (g6- | g2!<)!!>(! ^f2) z2!>)! |!<(! (=f6- | f2!<)!!>(! e2) z2!>)! | %28
 (g2 _B4) |"_cresc." (A2 =B2 c2) | f2{/e} (Td4{c)} | c3!<(! BA^G!<)! |!f! .A(cBAce) | a2 a4 | %34
 .B(dcBd^g) | b2 b4 | .c(edcea) | (c'b) (d'c') (ba) | ^g2 (a3 b/c'/) | b3!>(! (dcB!>)! | %40
!p! .A)(cBA)ce | a2 a4 | .B(dcB)d^g | b2 b4 | .c"_cresc."(edc)ea | (c'bd')^gae | %46
!f! (fd) c2 (TB2{AB)} | A4 z2 |!p! (c4 A2) |!>(! (B2 e2)!>)! z2 | (A4 ^F2) | (G2 e2) z2 | %52
 (!>!c2 B2) E2 | (!>!c2 B2) E2 | a2!<(! (a2 g2)!<)! |!>(! (Tg2 ^f2) z2!>)! |!p!!<(! (b6- | %57
 b!<)!^a) a2 z2 |!p!!<(!({^ga)b} (a6-!<)! | a=g) g2 z2 |!p! (=f2 ^d2) e2 | %61
 z"^poco rit." (f e^d ee') | (d'/c'/b/a/) (g2 (T^f2){ef)} | e3!<(! (dcB!<)! | %64
!f!"^a tempo\n" .A)(cBAce) | a2 a4 | .B(dcBd^g) | b2 b4 | .c(edcea) | (c'b) (d'c') (ba) | %70
 ^g2 (a3 b/c'/) |{/c'} b3!>(! .D.C.B,!>)! |!f! (3A,CB,!<(! (3A,CE (3Ac!<)!e | a2 a4 | %74
 (3B,DC!<(! (3B,D^G (3Bd!<)!^g | b2 b4 | (3CED (3C!<(!EA (3cea!<)! |!f! (c'bd')^gae | %78
 (fd) c2 (TB2{AB)} | A4 z2 ||[K:A]!p! (.[Ec]2 .[Ec]2 .[Ec]2) | (B4 c2) | (.[Ed]2 .[Ed]2 .[Ed]2) | %83
 (c4 e2) | (d2 B2 c2 | d2 B2 c2 | d2)!<(! (d2 c2)!<)! |!>(! (Tc2 B2) z2!>)! |[K:A]!pp! E6- | E6 | %90
 E6- | E6 | E6- | E6- | E2 E4 | E4 z2 |[K:A]!mp! (B4 d2- | d2 c2 e2- | e2) (B2 d2- | d2 c2 e2- | %100
 e2) (B2 c2 | d2) (B2 c2 | d2){/c} TB4 | A4 z2 |[K:A]!pp! E6- | E6- | E2 E4- | E6- | %108
 E2!<(! E4-!<)! | E2!<(! (B,2 C2!<)! | D2)!>(!{/C} TB,4!>)! | A,4 z2 ||[K:C]!f! .A(cBAce) | a2 a4 | %114
 .B(dcBd^g) | b2 b4 | .c(edcea) | (c'b) (d'c') (ba) | ^g2 (a3 b/c'/) | b3!>(! (dcB!>)! | %120
!p! .A)(cBA)ce | a2 a4 | .B(dcB)d^g | b2 b4 | .c"_cresc."(edc)ea | (c'bd')^gae | %126
!f! (fd) c2 (TB2{AB)} | A4 z2 |!p! c4 (eG) |{GB} A2 G2 z2 | c2 (e/d/c/B/ A/G/F/E/) |{EG} F2 E2 z2 | %132
!<(! c4!<)!!f! (_b2- | b2 a2) !tenuto!g2 | f!>(!e d2 c2 | BA G2 z2!>)! |!p!"_espr."!<(! (g6- | %137
 g2!<)!!>(! ^f2) z2!>)! |!<(! (=f6- | f2!<)!!>(! e2) z2!>)! | (g2 _B4) |"_cresc." (A2 =B2 c2) | %142
 f2{/e} (Td4{c)} | c3!<(! BA^G!<)! |!f!"^a tempo\n" .A(cBAce) | a2 a4 | .B(dcBd^g) | b2 b4 | %148
 .c(edcea) | (c'b) (d'c') (ba) | ^g2 (a3 b/c'/) |{/c'} b3!>(! .D.C.B,!>)! | %152
!f! (3A,CB,!<(! (3A,CE (3Ac!<)!e | a2 a4 | (3B,DC!<(! (3B,D^G (3Bd!<)!^g | b2 b4 | %156
 (3CED (3C!<(!EA (3cea!<)! |!f! (c'bd')^gae | (fd) c2 (TB2{AB)} | A6 |] %160
V:2
 x6 | x6 | x6 | x6 | x6 | x6 | x6 | x6 | x6 | x6 | x6 | x6 | x6 | x6 | x6 | x6 | x6 | x6 | x6 | %19
 x6 | x6 | x6 | x6 | x6 | x6 | x6 | x6 | x6 | x6 | x6 | x6 | x6 | x6 | x6 | x6 | x6 | x6 | x6 | %38
 x6 | x6 | x6 | x6 | x6 | x6 | x6 | x6 | x6 | x6 | x6 | x6 | x6 | x6 | x6 | x6 | x6 | x6 | x6 | %57
 x6 | x6 | x6 | x6 | x6 | x6 | x6 | x6 | x6 | x6 | x6 | x6 | x6 | x6 | x6 | x6 | x6 | x6 | x6 | %76
 x6 | x6 | x6 | x6 ||[K:A] x6 | E6 | x6 | E6 | E6- | E6- | E2 E4 | E6 |[K:A] (C2 A,2 C2- | %89
 C2 B,2 C2) | (D2 B,2 D2- | D2 C2 A,2) | (D2 B,2 C2 | D2 B,2 C2 | D2) (D2 C2) |{/C} B,4 x2 | %96
[K:A] E6- | E6- | E2- E4- | E6- | E2 E4- | E2 x4 | x6 | x6 |[K:A] (B,4 D2- | D2 C2 A,2- | %106
 A,2) (B,2 D2- | D2 C2 A,2- | A,2) (B,2 C2 | D2) x4 | x6 | x6 ||[K:C] x6 | x6 | x6 | x6 | x6 | x6 | %118
 x6 | x6 | x6 | x6 | x6 | x6 | x6 | x6 | x6 | x6 | x6 | x6 | x6 | x6 | x6 | x6 | x6 | x6 | x6 | %137
 x6 | x6 | x6 | x6 | x6 | x6 | x6 | x6 | x6 | x6 | x6 | x6 | x6 | x6 | x6 | x6 | x6 | x6 | x6 | %156
 x6 | x6 | x6 | x6 |] %160
V:3
 z2 z2 [A,CE]2 | A6 | [B,E]2 z2 D2 | e6 | [Ec]2 z2 [Ec]2 | [CA]2 .[A,A]2 .F2 | .E2 .[EA]2 .[EAc]2 | %7
 [E^GB]4 z2 | z2 z2 .[A,CE]2 | .[CEA]2 z2 z2 | z2 .E2 .B2 | .e2 z2 z2 | z2"_cresc." E2 c2- | %13
 E2 [D^G]2 [EA]2 |!f! (AB) [EAc]2 [E^GB]2 | [CEA]3 z z2 |!p! (GF G2) E2 | .[CA]2 .[CG]2 (cG) | %18
 (EF G2) E2 | .[DF]2 .[CE]2 (CD |!<(! EF G2)!<)!!mf! [E_B]2 | (_B2 A2) G2 | (F!>(!G A2) A2 | %23
 ([GB][Ac] [Bd]2)!>)!!p! z2 | z2"_espress." [Gd]2 B2 | ([Ec]2 [^FA]2 d2) | (d2 c2 B2) | %27
 (Gc e2) z2 | z2 _B4 | A2"_cresc." (B2 c2) | c2 (c2 B2) | [EGc]2!<(! (ED CB,)!<)! | z2 z2 [A,CE]2 | %33
 A6 | [B,E]2 z2 D2 | e6 | [Ec]2 z2 [Ec]2 | .[CA]2 .[A,A]2 .F2 | .E2 .[EA]2 .[EAc]2 | [E^GB]4 z2 | %40
 z2 z2 .[A,CE]2 | .[CEA]2 z2 z2 | z2 .E2 .B2 | .e2 z2 z2 | z2"_cresc." E2 (c2 | [ce]2) z4 | %46
!f! (AB) [EAc]2 [E^GB]2 | [CEA]2!>(! z2 z2!>)! |!p! z2 z2 A2 | [B,EB]2 z2 x2 | A4 [^F-A]2 | %51
 ([FG]2 [EB]2) z2 | z!<(! (E(B[B^d])e)!<)! z | z!<(! (E(B[B^d])e)!<)! z | %54
 z2!<(! [^FAB]2 [EGB]2!<)! |!>(! (B2 B2)!>)! z2 | (^F2!p! ^D2 F2) | E2 ^C2- [C^FA]2 | A6 | %59
 (A2 G2) z2 | (c2 [^F^d]2 [Ee]2) | z ([Ac](^F^d [Ee]2)) | z (^F [EG]2) [^DF]2 | %63
 E2 z!<(! ([E^G][^FA][GB])!<)! | [EAc]2 z2 [A,CE]2 | A6 | [B,E]2 z2 D2 | e6 | [Ec]2 z2 [Ec]2 | %69
 [CA]2 .[A,A]2 .F2 | .E2 .[EA]2 .[EAc]2 | [E^GB]4 z2 |!f! z2 .[EAc]2 .[CEA]2 | .[A,CE]2 z2 z2 | %74
 z2 .[DFB]2 .[B,DF]2 | E6 | z2 [EAc]2 C2- | [CE]2!f! [D^G]2 [EA]2 | (AB) [EAc]2 [E^GB]2 | %79
 [CEA]4 z2 ||[K:A]!p! z (ECEAc) | (BEBece) | z (GEGde) | (cEFGAe) | z (E[Bd]e[Ac]E) | %85
 z (E[Bd]e[Ac]E) | z (E[Bd]E[Ac]E) | ([Ac]E [GB]) z z2 |[K:A][K:bass]!pp! z (CE,A,CE) | %89
 (E,EE,EE,E) | z (DE,B,DE) | (E,EE,EE,E) | z (EE,EE,E) | z (EE,EE,E) | z (E[B,D]E[A,C]E) | %95
{/[A,C]} [G,B,]2!<(! z2 z2!<)! |[K:A] z!mp! (BEBde | dEcEAe) | (AEBEde) | (dEcEAe) | (AEBEcE) | %101
 (dEBEcA) | (FAB,EAG | AE!>(!CECA,)!>)! |[K:A]!pp! z (B,E,B,DE | DE,CE,EE,) | (EE,B,E,DE | %107
 DE,CE,EE,) |!<(! (EE,B,E,CE, | DE,B,E,C!<)!A,) |!>(! (F,A,B,,E,A,G,!>)! | A,E,C,E, A,,2) || %112
[K:C][K:treble] z2 z2 [A,CE]2 | A6 | [B,E]2 z2 D2 | e6 | [Ec]2 z2 [Ec]2 | [CA]2 .[A,A]2 .F2 | %118
 .E2 .[EA]2 .[EAc]2 | [E^GB]4 z2 | z2 z2 .[A,CE]2 | .[CEA]2 z2 z2 | z2 .E2 .B2 | .e2 z2 z2 | %124
 z2"_cresc." E2 c2- | E2 [D^G]2 [EA]2 |!f! (AB) [EAc]2 [E^GB]2 | [CEA]3 z z2 |!p! (GF G2) E2 | %129
 .[CA]2 .[CG]2 (cG) | (EF G2) E2 | .[DF]2 .[CE]2 (CD |!<(! EF G2)!<)!!mf! [E_B]2 | (_B2 A2) G2 | %134
 (F!>(!G A2) A2 | ([GB][Ac] [Bd]2)!>)!!p! z2 | z2"_espress." [Gd]2 B2 | ([Ec]2 [^FA]2 d2) | %138
 (d2 c2 B2) | (Gc e2) z2 | z2 _B4 | A2"_cresc." (B2 c2) | c2 (c2 B2) | [EGc]2!<(! (ED CB,)!<)! | %144
 [EAc]2 z2 [A,CE]2 | A6 | [B,E]2 z2 D2 | e6 | [Ec]2 z2 [Ec]2 | [CA]2 .[A,A]2 .F2 | %150
 .E2 .[EA]2 .[EAc]2 | [E^GB]4 z2 |!f! z2 .[EAc]2 .[CEA]2 | .[A,CE]2 z2 z2 | z2 .[DFB]2 .[B,DF]2 | %155
 E6 | z2 [EAc]2 C2- | [CE]2!f! [D^G]2 [EA]2 | (AB) [EAc]2 [E^GB]2 | [CEA]6 |] %160
V:4
!f! [A,,,A,,]2 z2 z2 | (A,,B,,) (C,B,,) (C,A,,) | ^G,,2 z2 z2 | ([E,,E,]^F,) (^G,F,) (G,E,) | %4
 [A,,A,]6- | [A,,A,]2 .[F,,F,]2 .[D,,D,]2 | .[E,,E,]2 .[C,,C,]2 .[A,,,A,,]2 | %7
 .[E,,E,]2 .[E,,,E,,]2 z2 |!p! .[A,,,A,,]2 z2 z2 | ([A,,A,]B,) (CB,) (CA,) | ^G,2 z2 z2 | %11
 (E,^F,) (^G,F,) (G,E,) | [A,,A,]6- | [A,,A,]2 B,,2 C,2 | D,2 (E,2 E,,2) | A,,3 (A,=G,F,) | %16
 (E,D, E,2) C,2 | .F,2 .E,2 z2 | z2 E,2 C,2 | .[B,,G,]2 .[C,G,]2 z2 | z2 E,2 C,2 | F,,2 F,2 E,2 | %22
 A,4 D2 | D4 (G,A,) | (B,A, B,2) G,2 | (A,2 D2 C2) | (B,2 A,2 G,2 | C2) (C,2 D,2) | %28
 E,2 (C,D, E,C, | F,2) (G,2 A,2) | F,2 (G,2 G,,2) | C,2 z2 [E,,E,]2 |!f! [A,,,A,,]2 z2 z2 | %33
 (A,,B,,) (C,B,,) (C,A,,) | ^G,,2 z2 z2 | ([E,,E,]^F,) (^G,F,) (G,E,) | [A,,A,]6- | %37
 [A,,A,]2 .[F,,F,]2 .[D,,D,]2 | .[E,,E,]2 .[C,,C,]2 .[A,,,A,,]2 | .[E,,E,]2 .[E,,,E,,]2 z2 | %40
!p! .[A,,,A,,]2 z2 z2 | ([A,,A,]B,) (CB,) (CA,) | ^G,2 z2 z2 | (E,^F,) (^G,F,) (G,E,) | [A,,A,]6- | %45
 [A,,A,]2 B,,2 C,2 | D,2 (E,2 E,,2) | A,,2 (E,D, C,B,, | A,,2) (A,2 ^F,2 | G,2) (G,^F, G,E, | %50
 ^F,2) ^C,2 [^D,B,]2 | ([E,B,]2 G,2) E,2 | (A,2 G,2) z2 | (A,,2 G,,2) z2 | ^F,,2 ^D,,2 E,,2 | %55
 (B,,,2 B,,2 ^C,2) | (^D,2 B,,2 D,2) | (^C,2 ^F,2 E,2 | ^D,2 ^C,2 B,,2 | E,2) (E,^F, G,E,) | %60
 (A,2 B,2 C2) | (A,2 B,2 C2) | A,2 B,2 B,,2 | E,2 E,,2 z2 |!f! [A,,,A,,]2 z2 z2 | %65
 (A,,B,,) (C,B,,) (C,A,,) | ^G,,2 z2 z2 | ([E,,E,]^F,) (^G,F,) (G,E,) | [A,,A,]6- | %69
 [A,,A,]2 .[F,,F,]2 .[D,,D,]2 | .[E,,E,]2 .[C,,C,]2 .[A,,,A,,]2 | .[E,,E,]2 !>!E,,,E,, ^F,,^G,, | %72
 [A,,,A,,]2 z2 z2 | (A,,B,,) (C,B,,) (C,A,,) | ^G,,2 z2 z2 | ([E,,,E,,]^F,,) (^G,,F,,) (G,,E,,) | %76
 [A,,,A,,]6- | [A,,,A,,]2 [B,,,B,,]2 [C,,C,]2 | [D,,D,]2 [E,,E,]2 [E,,,E,,]2 | [A,,,A,,]4 z2 || %80
[K:A] A,,2 (.A,2 .A,2) | (G,4 A,2) | (.B,2 .B,2 .B,2) | (A,4 C2) | (B,2 G,2 A,2) | (B,2 G,2 A,2 | %86
 B,2) (G,2 A,2) | (E,3 D,C,B,,) |[K:A] (A,,2 C,2 A,,2- | A,,2 G,,2 A,,2) | (B,,2 G,,2 B,,2- | %91
 B,,2 A,,2 C,2) | (B,,2 G,,2 A,,2) | (B,,2 G,,2 A,,2 | B,,2) (G,,2 A,,2) | E,,2 (E,2 F,2) | %96
[K:A] (G,4 B,2- | B,2 A,2 C2- | C2) (G,2 B,2- | B,2 A,2 C2- | C2) (G,2 A,2 | B,2) (G,2 A,2 | %102
 D,2) (E,2 E,,2) | A,,4 z2 |[K:A] (G,,4 B,,2- | B,,2 A,,2 C,2- | C,2) (G,,2 B,,2- | %107
 B,,2 A,,2 C,2- | C,2) (G,,2 A,,2 | B,,2) (G,,2 A,,2 | D,,2) E,,4 | [A,,,A,,]2 z2 z2 || %112
[K:C]!f! [A,,,A,,]2 z2 z2 | (A,,B,,) (C,B,,) (C,A,,) | ^G,,2 z2 z2 | ([E,,E,]^F,) (^G,F,) (G,E,) | %116
 [A,,A,]6- | [A,,A,]2 .[F,,F,]2 .[D,,D,]2 | .[E,,E,]2 .[C,,C,]2 .[A,,,A,,]2 | %119
 .[E,,E,]2 .[E,,,E,,]2 z2 |!p! .[A,,,A,,]2 z2 z2 | ([A,,A,]B,) (CB,) (CA,) | ^G,2 z2 z2 | %123
 (E,^F,) (^G,F,) (G,E,) | [A,,A,]6- | [A,,A,]2 B,,2 C,2 | D,2 (E,2 E,,2) | A,,3 (A,=G,F,) | %128
 (E,D, E,2) C,2 | .F,2 .E,2 z2 | z2 E,2 C,2 | .[B,,G,]2 .[C,G,]2 z2 | z2 E,2 C,2 | F,,2 F,2 E,2 | %134
 A,4 D2 | D4 (G,A,) | (B,A, B,2) G,2 | (A,2 D2 C2) | (B,2 A,2 G,2 | C2) (C,2 D,2) | %140
 E,2 (C,D, E,C, | F,2) (G,2 A,2) | F,2 (G,2 G,,2) | C,2 z2 [E,,E,]2 |!f! [A,,,A,,]2 z2 z2 | %145
 (A,,B,,) (C,B,,) (C,A,,) | ^G,,2 z2 z2 | ([E,,E,]^F,) (^G,F,) (G,E,) | [A,,A,]6- | %149
 [A,,A,]2 .[F,,F,]2 .[D,,D,]2 | .[E,,E,]2 .[C,,C,]2 .[A,,,A,,]2 | .[E,,E,]2 !>!E,,,E,, ^F,,^G,, | %152
 [A,,,A,,]2 z2 z2 | (A,,B,,) (C,B,,) (C,A,,) | ^G,,2 z2 z2 | ([E,,,E,,]^F,,) (^G,,F,,) (G,,E,,) | %156
 [A,,,A,,]6- | [A,,,A,,]2 [B,,,B,,]2 [C,,C,]2 | [D,,D,]2 [E,,E,]2 [E,,,E,,]2 | [A,,,A,,]6 |] %160
V:5
 x6 | (CD) ((ED)) (EC) | x6 | (^GA) (BA) (BG) | x6 | x6 | x6 | x6 | x6 | x6 | x6 | %11
 (^GA) (BA) (BG) | x2 E4- | [ce]2 x4 | F2 x4 | x6 | x6 | x6 | x6 | x6 | x6 | [CF]4 ^C2 | D4 z2 | %23
 x6 | x6 | x6 | G6 | x6 | x2 (G4 | F2) (ED C2) | A2 [DG]4 | x6 | x6 | (CD) ((ED)) (EC) | x6 | %35
 (^GA) (BA) (BG) | x6 | x6 | x6 | x6 | x6 | x6 | x6 | (^GA) (BA) (BG) | x2 E4- | E2 [D^G]2 [EA]2 | %46
 F2 x4 | x6 | x2 [CE]4 | x4 E2- | E2 E2 x2 | x6 | x6 | x6 | x6 | ([EG]2 [^D^F]2) x2 | x6 | x6 | %58
 (^F2 E2 ^D2) | [B,E]4 x2 | x6 | x2 ^F2 x2 | x6 | x6 | x6 | (CD) ((ED)) (EC) | x6 | %67
 (^GA) (BA) (BG) | x6 | x6 | x6 | x6 | x6 | x6 | x6 | (^G,A,) (B,A,) (B,G,) | x6 | x6 | F2 x4 | %79
 x6 ||[K:A] x6 | x6 | x6 | x6 | x6 | x6 | x6 | x6 |[K:A][K:bass] x6 | x6 | x6 | x6 | x6 | x6 | x6 | %95
 x6 |[K:A] x6 | x6 | x6 | x6 | x6 | x6 | x6 | x6 |[K:A] x6 | x6 | x6 | x6 | x6 | x6 | x6 | x6 || %112
[K:C][K:treble] x6 | (CD) ((ED)) (EC) | x6 | (^GA) (BA) (BG) | x6 | x6 | x6 | x6 | x6 | x6 | x6 | %123
 (^GA) (BA) (BG) | x2 E4- | [ce]2 x4 | F2 x4 | x6 | x6 | x6 | x6 | x6 | x6 | [CF]4 ^C2 | D4 z2 | %135
 x6 | x6 | x6 | G6 | x6 | x2 (G4 | F2) (ED C2) | A2 [DG]4 | x6 | x6 | (CD) ((ED)) (EC) | x6 | %147
 (^GA) (BA) (BG) | x6 | x6 | x6 | x6 | x6 | x6 | x6 | (^G,A,) (B,A,) (B,G,) | x6 | x6 | F2 x4 | %159
 x6 |] %160
V:6
 x6 | x6 | x6 | x6 | x6 | x6 | x6 | x6 | x6 | x6 | x6 | x6 | x6 | x6 | x6 | x6 | x6 | x6 | x6 | %19
 x6 | x6 | x6 | (D,E, F,2) ^F,2 | G,4 z2 | x6 | x6 | x6 | x6 | x6 | x6 | x6 | x6 | x6 | x6 | x6 | %35
 x6 | x6 | x6 | x6 | x6 | x6 | x6 | x6 | x6 | x6 | x6 | x6 | x6 | x6 | x6 | x6 | x6 | x6 | x6 | %54
 x6 | x6 | x6 | x6 | x6 | x6 | x6 | x6 | x6 | x6 | x6 | x6 | x6 | x6 | x6 | x6 | x6 | x6 | x6 | %73
 x6 | x6 | x6 | x6 | x6 | x6 | x6 ||[K:A] x6 | x6 | x6 | x6 | x6 | x6 | x6 | x6 |[K:A] x6 | x6 | %90
 x6 | x6 | x6 | x6 | x6 | x6 |[K:A] x6 | x6 | x6 | x6 | x6 | x6 | x6 | x6 |[K:A] x6 | x6 | x6 | %107
 x6 | x6 | x6 | x6 | x6 ||[K:C] x6 | x6 | x6 | x6 | x6 | x6 | x6 | x6 | x6 | x6 | x6 | x6 | x6 | %125
 x6 | x6 | x6 | x6 | x6 | x6 | x6 | x6 | x6 | (D,E, F,2) ^F,2 | G,4 z2 | x6 | x6 | x6 | x6 | x6 | %141
 x6 | x6 | x6 | x6 | x6 | x6 | x6 | x6 | x6 | x6 | x6 | x6 | x6 | x6 | x6 | x6 | x6 | x6 | x6 |] %160

